src/assets/imgs/ico_jinpai.svg

<?xml version="1.0" encoding="UTF-8"?>
<svg width="16px" height="16px" viewBox="0 0 16 16" version="1.1" xmlns="http://www.w3.org/2000/svg" xmlns:xlink="http://www.w3.org/1999/xlink">
    <title>ico_jinpai</title>
    <g id="页面-1" stroke="none" stroke-width="1" fill="none" fill-rule="evenodd">
        <g id="5-户型鉴赏-长图" transform="translate(-60.000000, -122.000000)">
            <g id="编组-2" transform="translate(0.000000, 88.000000)">
                <g id="金牌" transform="translate(60.000000, 34.000000)">
                    <rect id="矩形" x="0" y="0" width="16" height="16"></rect>
                    <path d="M7.65092308,14.4089231 L6.07717949,15.1769231 C5.71231617,15.3551641 5.27184391,15.2117292 5.08189744,14.8528205 L4.26138462,13.3069744 C4.15236927,13.1021013 3.95500072,12.9589183 3.72641026,12.9188718 L2.00333333,12.6161026 C1.603669,12.5461665 1.33143531,12.171936 1.38794872,11.7701538 L1.63410256,10.0372308 C1.66610135,9.80756953 1.5904194,9.57598276 1.42897436,9.40953846 L0.214615385,8.15169231 C-0.0674735808,7.86002203 -0.0674735808,7.39720874 0.214615385,7.10553846 L1.4314359,5.84687179 C1.59239519,5.68019386 1.66747688,5.44859108 1.63492308,5.21917949 L1.38876923,3.48461538 C1.33225582,3.08283327 1.60448951,2.70860269 2.00415385,2.63866667 L3.72805128,2.33589744 C3.95664175,2.29585096 4.1540103,2.15266794 4.26302564,1.94779487 L5.08353846,0.401948718 C5.27344966,0.0434568353 5.71358984,-0.0996250393 6.078,0.0786666667 L7.65092308,0.847487179 C7.85851282,0.949230769 8.10220513,0.949230769 8.31061538,0.847487179 L9.88435897,0.0794871795 C10.2492223,-0.0987538492 10.6896946,0.0446810583 10.879641,0.403589744 L11.7001538,1.9494359 C11.8092821,2.1545641 12.0062051,2.29815385 12.2351282,2.33753846 L13.9582051,2.64030769 C14.3578695,2.71024372 14.6301032,3.0844743 14.5735897,3.48625641 L14.3274359,5.21917949 C14.2954359,5.44892308 14.3709231,5.68030769 14.5325641,5.84687179 L15.7485641,7.10553846 C16.0306531,7.39720874 16.0306531,7.86002203 15.7485641,8.15169231 L14.5317436,9.41035897 C14.3707843,9.57703691 14.2957026,9.80863969 14.3282564,10.0380513 L14.5735897,11.7709744 C14.6301032,12.1727565 14.3578695,12.546987 13.9582051,12.6169231 L12.2351282,12.9196923 C12.0065377,12.9597388 11.8091692,13.1029218 11.7001538,13.3077949 L10.879641,14.853641 C10.6896946,15.2125497 10.2492223,15.3559846 9.88435897,15.1777436 L8.3114359,14.4089231 C8.10328841,14.3072612 7.85989108,14.3072612 7.65174359,14.4089231 L7.65092308,14.4089231 Z" id="路径" fill="#F5CF41" fill-rule="nonzero"></path>
                    <path d="M7.98076923,13.2692308 C4.8653168,13.2692308 2.33974359,10.7436576 2.33974359,7.62820513 C2.33974359,4.51275269 4.8653168,1.98717949 7.98076923,1.98717949 C11.0962217,1.98717949 13.6217949,4.51275269 13.6217949,7.62820513 C13.6217949,10.7436576 11.0962217,13.2692308 7.98076923,13.2692308 Z M7.98076923,12.5168205 C10.680677,12.5168205 12.8693846,10.3281129 12.8693846,7.62820513 C12.8693846,4.9282974 10.680677,2.73958974 7.98076923,2.73958974 C5.28086151,2.73958974 3.09215385,4.9282974 3.09215385,7.62820513 C3.09215385,10.3281129 5.28086151,12.5168205 7.98076923,12.5168205 L7.98076923,12.5168205 Z" id="形状" fill="#F5CF41" fill-rule="nonzero"></path>
                    <path d="M10.6913141,10.0329498 C10.8481028,10.0329498 10.9747024,10.1700453 10.9747024,10.3408873 L10.9747024,10.6931171 C10.9747024,10.86185 10.8481028,11 10.6913141,11 L5.30790861,11 C5.15161939,10.9994214 5.02505456,10.8623636 5.02452023,10.6931171 L5.02452023,10.3408873 C5.02452023,10.1700453 5.15111985,10.0329498 5.30790861,10.0329498 L10.6913141,10.0329498 Z M8.00009826,4 C8.05512023,4 8.10705716,4.0275225 8.14081861,4.07457076 L9.64345873,6.14787575 C9.6772413,6.19452446 9.72894802,6.22177106 9.78369216,6.22177106 C9.8384363,6.22177106 9.89014301,6.19452446 9.92392559,6.14787575 L11.1811572,4.41836396 C11.2304189,4.34984316 11.3158749,4.32539019 11.3899635,4.35861468 C11.4640521,4.39183916 11.5085249,4.47455772 11.4986301,4.56073231 L10.9766501,9.41707488 L5.02452023,9.41707488 L4.50156641,4.56178689 C4.49090369,4.47501986 4.53550176,4.3913473 4.61021566,4.35794487 C4.68492956,4.32454244 4.77104671,4.349776 4.82001315,4.41941854 L6.07432325,6.14893033 C6.1080847,6.19597859 6.16002162,6.22350109 6.21504359,6.22350109 C6.27006557,6.22350109 6.32200249,6.19597859 6.35576394,6.14893033 L7.85937791,4.07457076 C7.89313936,4.0275225 7.94507628,4 8.00009826,4 Z" id="形状结合" fill="#FFF8CE" fill-rule="nonzero"></path>
                </g>
            </g>
        </g>
    </g>
</svg>

<svg width="16" height="16" xmlns="http://www.w3.org/2000/svg"><g fill="none" fill-rule="evenodd"><path d="M0 0h16v16H0z"/><path d="M7.65 14.409l-1.573.768a.752.752 0 01-.995-.324l-.82-1.546a.753.753 0 00-.536-.388l-1.723-.303a.752.752 0 01-.615-.846l.246-1.733a.752.752 0 00-.205-.627L.215 8.152a.752.752 0 010-1.046l1.216-1.26a.752.752 0 00.204-.627l-.246-1.734a.752.752 0 01.615-.846l1.724-.303a.753.753 0 00.535-.388l.82-1.546a.752.752 0 01.995-.323l1.573.768a.751.751 0 00.66 0L9.884.08a.752.752 0 01.996.325l.82 1.545a.75.75 0 00.535.389l1.723.302c.4.07.672.444.616.846l-.247 1.733a.752.752 0 00.206.628l1.216 1.259a.752.752 0 010 1.046L14.532 9.41a.752.752 0 00-.204.628l.246 1.733a.752.752 0 01-.616.846l-1.723.303a.753.753 0 00-.535.388l-.82 1.546a.752.752 0 01-.996.324l-1.573-.77a.752.752 0 00-.66 0z" fill="#F5CF41" fill-rule="nonzero"/><path d="M7.98 13.27a5.641 5.641 0 110-11.283 5.641 5.641 0 010 11.282zm0-.753a4.889 4.889 0 100-9.777 4.889 4.889 0 000 9.777z" fill="#F5CF41" fill-rule="nonzero"/><path d="M10.691 10.033c.157 0 .284.137.284.308v.352c0 .169-.127.307-.284.307H5.308c-.156 0-.283-.138-.283-.307v-.352c0-.171.126-.308.283-.308h5.383zM8.001 4c.054 0 .106.028.14.075l1.502 2.073a.174.174 0 00.14.074.174.174 0 00.14-.074l1.258-1.73a.17.17 0 01.209-.06.196.196 0 01.109.203l-.522 4.856H5.025l-.523-4.855a.196.196 0 01.108-.204.17.17 0 01.21.061l1.254 1.73a.174.174 0 00.141.075.174.174 0 00.14-.075L7.86 4.075A.174.174 0 018 4z" fill="#FFF8CE" fill-rule="nonzero"/></g></svg>
